X: 1
T: Waltz No.2
T: from Suite No.2 for Jazz Orchestra
N: Transposed no chords, _B,>D
C: Dmitri Shostakovich
R: waltz
Z: 2020 John Chambers <jc:trillian.mit.edu>
M: 3/4
L: 1/4
K: Fm
"^A"|:\
"Fm"c3 | A2G | F3- | FFG | AFA | c2d | c3 | "C7"B3 ||
B3 | G2F | =E3 | zC=E | G=EG | Bcd | "Fm"=B3 | c3 ||
"Fm"a3 | g2f | "Bbm"e2d | B3 | "Eb7"g3 | f2e | "Ab"e3 | "Db"z.A.B ||
"Ab/C".c c/B/ c/d/ | "Bbm/Db".B B/A/ B/c/ | "Fm/C".Az.c | "Db"z.A.B |
"Ab/C".c c/B/ c/d/ | "Bbm/Db".B B/A/ B/c/ | "Fm".Az.c | "Db"z.f.g ||
"Fm/C".a a/g/ a/b/ | "C7".g g/f/ "To Coda"g/a/ ||
[1 "Fm"f3- | f3- | f3- | f3 :|[2 "Fm"[A3-c3-f3-] | [Acf] z "E7"e "^B"||
"Ab"a3 | a3 | agf | ece | "Eb7"g3 | g3 | "Ab"fec | ABc ||
"F7"f3 | e3 | "Bbm"edc | B_AB | "Ab"c2e | "Eb7"B2e | "Ab"c2e | a2b ||
"Ab"c'3 | c'3 | c'ba | geg | "Eb7"b3 | b3 | "Ab"bag | fce ||
"Ab"a3 | "Ab7/Gb"a3 | "Db/F"a3 | "/Cb"bab | "Ab/Eb"c'2a | "Eb7"efg | "Ab"aba | _gf=e||
"^C"|:\
"Db"f'2a- | aga | f'2a- | a_g'f' | "Ab7"f'2e' | =d'2e' | b'2a' | _g'f'e' ||
"Db"f'2a- | aga | f'2a- | abc' | "Gb"d'2e' | "/C"f'2f' | "Eb7"=g'f'g' |
[1 "Ab"a'2_g' :|[2 "Ab"a'/b'/ a'/g'/ a'/b'/ | "Caug7"[=e'2^g'2c''2]"G.C. al Coda"^g' !coda!|]
"Fm"f3 | "C7"zc'2 ||
"Fm"c'3 | a2g | f3- | fga | afa | c'2d' | "C7/G"c'3 | b3 ||
"Bbm/G"b3 | "Fm/C"g2f | "C7/G"=e3- | ec=e | g=eg | bc'd' | "Fm"=b3 | c'3 ||
a3 | g2f | "Bbm/G"e2d | B3 | "Eb/G"g3 | f2e | "Ab"e3 | "Db"z.A.[GB] ||
"Ab/C".[Ac] c/B/ c/d/ | "Bbm/Db".[GB] B/A/ B/c/ | "Fm/C".[FA]z.[FAc] | "Db"z.[FA].[GB] |
"Ab/C".[Ac] c/B/ c/d/ | "Db".[GB] B/A/ B/c/ | "Fm/C".[FA]z.[FAc] | "Db".[Af].[Bg] ||
"Fm/C".[fa] a/g/ a/b/ | "C7".[=eg] g/f/ g/a/ | "Fm"fz "C7".[=ebc'] | "Fm".[faf'] z2 |]

